symbols/web/panorama/materialsymbolssharp/panorama_wght600grad200_24px.svg

<svg xmlns="http://www.w3.org/2000/svg" height="24" width="24"><path d="M5.375 16.075h13.25l-4.35-5.825-3.025 4.075L8.975 11.3Zm-4.275 4.8V3.125h21.8v17.75ZM4.175 17.8h15.65V6.2H4.175Zm0 0V6.2v11.6Z"/></svg>

<svg xmlns="http://www.w3.org/2000/svg" height="24" width="24"><path d="M5.375 16.075H18.625L14.275 10.25L11.25 14.325L8.975 11.3ZM1.1 20.875V3.125H22.9V20.875ZM4.175 17.8H19.825V6.2H4.175ZM4.175 17.8V6.2V17.8Z"/></svg>
